assets/icons/Food-Drink/Food/food-meat--cook-meat-cown-slice-organic-cooking-nutrition-food.svg

<svg xmlns="http://www.w3.org/2000/svg" width="14" height="14" viewBox="0 0 14 14"><g fill="none" fill-rule="evenodd" stroke-linecap="round" stroke-linejoin="round"><path stroke="currentColor" d="M2.223892,5.44 L2.223892,4.5 C2.223892,3.3954305 3.1193225,2.5 4.223892,2.5 L10.273892,2.5 C10.7656392,2.47694374 11.186564,2.84912981 11.223892,3.34 L11.223892,7.16 C11.186564,7.65087019 10.7656392,8.02305626 10.273892,8 L8.523892,8"/><path stroke="currentColor" d="M13.223892,9.24 L13.223892,12.12 C13.223892,12.882153 12.606045,13.5000041 11.843892,13.5000041 L6.513892,13.5000041 C5.89684892,13.5014974 5.3538011,13.0931908 5.183892,12.5 L5.183892,12.5 C5.01794037,11.9083637 4.4783619,11.4995922 3.863892,11.5 L3.303892,11.5 C2.48702521,11.5 1.70361516,11.1755009 1.12600311,10.5978889 C0.548391068,10.0202768 0.223892,9.23686679 0.223892,8.42 L0.223892,4.56"/><path stroke="currentColor" d="M11.223892,0.5 C12.3284615,0.5 13.223892,1.3954305 13.223892,2.5 L13.223892,9.24 C13.223892,10.002153 12.606045,10.6200041 11.843892,10.6200041 L7.723892,10.6200041 C7.10684892,10.6214974 6.5638011,10.2131908 6.393892,9.62 L6.393892,9.62 C6.22794037,9.02836373 5.6883619,8.61959215 5.073892,8.62 L4.283892,8.62 C2.04161592,8.62 0.223892,6.80227608 0.223892,4.56 C0.223892,2.31772392 2.04161592,0.5 4.283892,0.5 L11.223892,0.5 Z"/><circle cx="5.054" cy="5.14" r="1" stroke="currentColor"/></g></svg>

<svg width="14" height="14" viewBox="0 0 14 14" xmlns="http://www.w3.org/2000/svg"><g fill="none" fill-rule="evenodd" stroke-linecap="round" stroke-linejoin="round" transform="translate(.276)" stroke="currentColor"><path d="M2.224 5.44V4.5a2 2 0 0 1 2-2h6.05a.91.91 0 0 1 .95.84v3.82a.91.91 0 0 1-.95.84h-1.75"/><path d="M13.224 9.24v2.88a1.38 1.38 0 0 1-1.38 1.38h-5.33a1.38 1.38 0 0 1-1.33-1v0a1.37 1.37 0 0 0-1.32-1h-.56a3.08 3.08 0 0 1-3.08-3.08V4.56"/><path d="M11.224.5a2 2 0 0 1 2 2v6.74a1.38 1.38 0 0 1-1.38 1.38h-4.12a1.38 1.38 0 0 1-1.33-1v0a1.37 1.37 0 0 0-1.32-1h-.79a4.06 4.06 0 1 1 0-8.12z"/><circle cx="5.054" cy="5.14" r="1"/></g></svg>
